web-magafilio/image/header/icon-anunciante.svg

<svg width="25" height="21" viewBox="0 0 25 21" fill="none" xmlns="http://www.w3.org/2000/svg">
<path d="M21.1596 0.485046C23.2308 2.65705 24.2676 5.17225 24.2676 8.03066C24.2676 10.8891 23.2308 13.3539 21.1596 15.4275L19.4052 13.7211C20.8764 12.0147 21.6132 10.0683 21.6132 7.87946C21.6132 5.69066 20.8764 3.79225 19.4052 2.18905L21.1596 0.485046ZM17.6484 4.04425C18.7164 5.21545 19.2516 6.53546 19.2516 8.00666C19.2516 9.47786 18.7164 10.7475 17.646 11.8179L15.8412 10.0131C16.3092 9.37706 16.542 8.68346 16.542 7.93226C16.542 7.18106 16.3092 6.48746 15.8412 5.85146L17.6484 4.04425ZM9.32281 14.3739C11.1276 14.3739 13.0092 14.7675 14.9628 15.5523C16.9188 16.3371 17.8956 17.3667 17.8956 18.6363V20.7939H0.747614V18.6363C0.747614 17.3667 1.72441 16.3371 3.68041 15.5523C5.63641 14.7675 7.51801 14.3739 9.32281 14.3739ZM5.06041 7.95626C5.06041 6.78506 5.47801 5.78186 6.31321 4.94665C7.14841 4.11145 8.15161 3.69385 9.32281 3.69385C10.494 3.69385 11.4972 4.11145 12.3324 4.94665C13.1676 5.78186 13.5852 6.78506 13.5852 7.95626C13.5852 9.12746 13.1676 10.1307 12.3324 10.9659C11.4972 11.8011 10.494 12.2187 9.32281 12.2187C8.15161 12.2187 7.14841 11.8011 6.31321 10.9659C5.47801 10.1283 5.06041 9.12506 5.06041 7.95626Z" fill="black"/>
</svg>

<svg width="25" height="21" fill="none" xmlns="http://www.w3.org/2000/svg"><path d="M21.16.485c2.07 2.172 3.108 4.687 3.108 7.546 0 2.858-1.037 5.323-3.108 7.396l-1.755-1.706c1.471-1.706 2.208-3.653 2.208-5.842 0-2.188-.737-4.087-2.208-5.69L21.16.485zm-3.512 3.56c1.068 1.17 1.604 2.49 1.604 3.962 0 1.47-.536 2.74-1.606 3.81l-1.805-1.804c.468-.636.701-1.33.701-2.08 0-.752-.233-1.446-.7-2.082l1.806-1.807zM9.323 14.373c1.805 0 3.686.393 5.64 1.178 1.956.785 2.933 1.815 2.933 3.084v2.158H.748v-2.158c0-1.27.976-2.299 2.932-3.084 1.956-.784 3.838-1.178 5.643-1.178zM5.06 7.956c0-1.17.418-2.174 1.253-3.01.835-.835 1.839-1.252 3.01-1.252 1.171 0 2.174.417 3.01 1.253.835.835 1.252 1.838 1.252 3.01 0 1.17-.417 2.174-1.253 3.009-.835.835-1.838 1.253-3.01 1.253-1.17 0-2.174-.418-3.009-1.253-.835-.838-1.253-1.84-1.253-3.01z" fill="#000"/></svg>
